UI/POI/SVG/airport-gate_outline_24px.svg

<svg width="24" height="24" viewBox="0 0 24 24" fill="none" xmlns="http://www.w3.org/2000/svg">
<path d="M12 22H2V20H12V22ZM21.71 3.71002L20.29 5.12002L19.59 4.41002L18 4.63002L14.75 8.15002L9.75 7.32002L11.2 8.40002L13 9.76002L11.41 11.39L8.48 14.39L8 14.89L9.61 15.44L8 17L2 15L4 13H7.07L10 10L6 7.00002L8 5.00002L14 6.00002L16.54 3.22002C16.8103 2.94007 17.1588 2.74835 17.54 2.67002L20.79 2.00002C21.0065 1.94434 21.2354 1.96281 21.4402 2.05248C21.645 2.14215 21.8138 2.29785 21.9197 2.49471C22.0256 2.69158 22.0625 2.91825 22.0245 3.13854C21.9865 3.35883 21.8758 3.56003 21.71 3.71002V3.71002ZM18 10L15 13L17 16L18 15V10Z" fill="#0F1621"/>
</svg>

<svg xmlns="http://www.w3.org/2000/svg" width="24" height="24" viewBox="0 0 24 24"><rect width="24" height="24" style="fill:none"/><path d="M12,22H2V20H12ZM21.71,3.71,20.29,5.12l-.7-.71L18,4.63,14.75,8.15l-5-.83L11.2,8.4,13,9.76l-1.59,1.63-2.93,3L8,14.89l1.61.55L8,17,2,15l2-2H7.07L10,10,6,7,8,5l6,1,2.54-2.78a1.93,1.93,0,0,1,1-.55L20.79,2A1,1,0,0,1,21.71,3.71ZM18,10l-3,3,2,3,1-1Z"/></svg>
